public/icons/information-circle-outline-sm.svg

<svg role="img" width="24" height="24" viewBox="0 0 24 24" fill="none" xmlns="http://www.w3.org/2000/svg">
<path fill-rule="evenodd" clip-rule="evenodd" d="M22 12C22 17.5228 17.5228 22 12 22C6.47715 22 2 17.5228 2 12C2 6.47715 6.47715 2 12 2C17.5228 2 22 6.47715 22 12ZM23 12C23 18.0751 18.0751 23 12 23C5.92487 23 1 18.0751 1 12C1 5.92487 5.92487 1 12 1C18.0751 1 23 5.92487 23 12ZM13.25 7.125C13.25 7.74632 12.7463 8.25 12.125 8.25C11.5037 8.25 11 7.74632 11 7.125C11 6.50368 11.5037 6 12.125 6C12.7463 6 13.25 6.50368 13.25 7.125ZM11.125 11.5C11.125 10.9477 11.5727 10.5 12.125 10.5C12.6773 10.5 13.125 10.9477 13.125 11.5V17C13.125 17.5523 12.6773 18 12.125 18C11.5727 18 11.125 17.5523 11.125 17V11.5Z" fill="currentColor"/>
</svg>

<svg xmlns="http://www.w3.org/2000/svg" width="24" height="24" fill="none" viewBox="0 0 24 24">
  <path fill="currentColor" fill-rule="evenodd" d="M22 12c0 5.5228-4.4772 10-10 10-5.5229 0-10-4.4772-10-10C2 6.4771 6.4771 2 12 2c5.5228 0 10 4.4771 10 10Zm1 0c0 6.0751-4.9249 11-11 11S1 18.0751 1 12 5.9249 1 12 1s11 4.9249 11 11Zm-9.75-4.875c0 .6213-.5037 1.125-1.125 1.125S11 7.7463 11 7.125 11.5037 6 12.125 6s1.125.5037 1.125 1.125ZM11.125 11.5c0-.5523.4477-1 1-1s1 .4477 1 1V17c0 .5523-.4477 1-1 1s-1-.4477-1-1v-5.5Z" clip-rule="evenodd"/>
</svg>
